X:7721
T:Jack Jardine
R:reel, (AEAE tuning)
C:Paul S. Cranford
O:20th Century Cape Breton
D:The Lighthouse, Cranford Publications
B:The Lighthouse Collection, ISBN 0-9691181-5-5 (scordatura notation)
N:http://www.cranfordpub.com
Q:300
L:1/8
M:C|
K:A
B,|A,2 CE FAAG|AEFA ECA,B,|A,2 CE FAAB|cedc BAFA|!
A,2 CE FAAG|AEFA ECA,B,|CEFA EACF|ECB,C A,/A,/A, A,:|!
|:d|cefa ec c/c/c|eAcA BAFd|cefa efcf|ecBc A/A/A AB|!
cefa ec c/c/c|eAcA BAFG|AEFA EACF|ECB,C A,/A,/A, A,|]!
